client/public/sort.svg

<svg width="0" height="0" class="hidden"><symbol xmlns="http://www.w3.org/2000/svg" viewBox="0 0 24 24" data-src="resources/icons/sort_alphabet_down_24.svg" xmlns:xlink="http://www.w3.org/1999/xlink" id="alph_asc"><path d="M9.3871 15.6713L9.38709 15.6713L9.38689 15.672C9.27509 16.0556 9.28845 16.3935 9.44578 16.6739C9.60526 16.9582 9.86406 17.1 10.2043 17.1C10.3933 17.1 10.5664 17.0255 10.7217 16.8872C10.8762 16.7495 10.9831 16.579 11.0417 16.378L11.0418 16.378L11.0424 16.3755L11.4837 14.7H14.4169L14.8973 16.4022L14.8976 16.403C14.9563 16.6045 15.0638 16.7719 15.2202 16.9019C15.3739 17.0298 15.5394 17.1 15.715 17.1C16.0552 17.1 16.314 16.9582 16.4735 16.6739C16.6305 16.394 16.6445 16.0643 16.532 15.6959C16.532 15.6959 16.532 15.6958 16.532 15.6958L14.2081 7.97278C14.208 7.97251 14.2079 7.97224 14.2078 7.97197C14.1219 7.66877 13.9533 7.41424 13.7043 7.21017C13.4586 7.00872 13.2065 6.9 12.9496 6.9C12.6803 6.9 12.4245 7.0079 12.1838 7.21108C11.9417 7.41532 11.777 7.66965 11.6913 7.97204C11.6913 7.97229 11.6912 7.97253 11.6911 7.97278L9.3871 15.6713ZM13.8427 12.8H12.0178L12.9489 9.3152L13.8427 12.8ZM17.7748 16.7C17.9841 16.9612 18.2416 17.1 18.5442 17.1H22.6922C22.9268 17.1 23.1245 16.9955 23.2812 16.8C23.4373 16.6053 23.5136 16.37 23.5136 16.1C23.5136 15.83 23.4373 15.5947 23.2812 15.4C23.1245 15.2045 22.9268 15.1 22.6922 15.1H19.5482L23.136 9.4806C23.2383 9.33411 23.3186 9.13887 23.3802 8.89995C23.4418 8.66086 23.4735 8.44391 23.4735 8.25C23.4735 7.88038 23.3707 7.56166 23.161 7.29996C22.9517 7.03884 22.6942 6.9 22.3916 6.9H18.444C18.2093 6.9 18.0116 7.00448 17.8549 7.19996C17.6988 7.39474 17.6226 7.63003 17.6226 7.9C17.6226 8.16997 17.6988 8.40526 17.8549 8.60004C18.0116 8.79552 18.2093 8.9 18.444 8.9H21.4271L17.8198 14.5193C17.7178 14.6655 17.6342 14.8644 17.5661 15.1109C17.4977 15.3583 17.4623 15.5801 17.4623 15.775C17.4623 16.1292 17.5657 16.4392 17.7748 16.7Z" stroke-width="0.2"></path><path d="M4.02193 18.567C3.70606 18.629 3.36604 18.5376 3.12132 18.2929L0.292893 15.4645C-0.0976311 15.0739 -0.0976311 14.4408 0.292893 14.0503L0.387101 13.9671C0.779392 13.662 1.34662 13.6898 1.70711 14.0503L2.999 15.343L3 6C3 5.44771 3.44772 5 4 5C4.55228 5 5 5.44771 5 6L4.999 15.387L6.33553 14.0503C6.72606 13.6597 7.35922 13.6597 7.74975 14.0503C8.14027 14.4408 8.14027 15.0739 7.74975 15.4645L4.92132 18.2929C4.67682 18.5374 4.3372 18.6288 4.02193 18.567Z"></path></symbol><symbol xmlns="http://www.w3.org/2000/svg" viewBox="0 0 24 24" class="injected-svg" data-src="resources/icons/sort_alphabet_up_24.svg" xmlns:xlink="http://www.w3.org/1999/xlink" id="alph_desc"><path d="M9.3871 15.6713L9.38709 15.6713L9.38689 15.672C9.27509 16.0556 9.28845 16.3935 9.44578 16.6739C9.60526 16.9582 9.86406 17.1 10.2043 17.1C10.3933 17.1 10.5664 17.0255 10.7217 16.8872C10.8762 16.7495 10.9831 16.579 11.0417 16.378L11.0418 16.378L11.0424 16.3755L11.4837 14.7H14.4169L14.8973 16.4022L14.8976 16.403C14.9563 16.6045 15.0638 16.7719 15.2202 16.9019C15.3739 17.0298 15.5394 17.1 15.715 17.1C16.0552 17.1 16.314 16.9582 16.4735 16.6739C16.6305 16.394 16.6445 16.0643 16.532 15.6959C16.532 15.6959 16.532 15.6958 16.532 15.6958L14.2081 7.97278C14.208 7.97251 14.2079 7.97224 14.2078 7.97197C14.1219 7.66877 13.9533 7.41424 13.7043 7.21017C13.4586 7.00872 13.2065 6.9 12.9496 6.9C12.6803 6.9 12.4245 7.0079 12.1838 7.21108C11.9417 7.41532 11.777 7.66965 11.6913 7.97204C11.6913 7.97229 11.6912 7.97253 11.6911 7.97278L9.3871 15.6713ZM13.8427 12.8H12.0178L12.9489 9.3152L13.8427 12.8ZM17.7748 16.7C17.9841 16.9612 18.2416 17.1 18.5442 17.1H22.6922C22.9268 17.1 23.1245 16.9955 23.2812 16.8C23.4373 16.6053 23.5136 16.37 23.5136 16.1C23.5136 15.83 23.4373 15.5947 23.2812 15.4C23.1245 15.2045 22.9268 15.1 22.6922 15.1H19.5482L23.136 9.4806C23.2383 9.33411 23.3186 9.13887 23.3802 8.89995C23.4418 8.66086 23.4735 8.44391 23.4735 8.25C23.4735 7.88038 23.3707 7.56166 23.161 7.29996C22.9517 7.03884 22.6942 6.9 22.3916 6.9H18.444C18.2093 6.9 18.0116 7.00448 17.8549 7.19996C17.6988 7.39474 17.6226 7.63003 17.6226 7.9C17.6226 8.16997 17.6988 8.40526 17.8549 8.60004C18.0116 8.79552 18.2093 8.9 18.444 8.9H21.4271L17.8198 14.5193C17.7178 14.6655 17.6342 14.8644 17.5661 15.1109C17.4977 15.3583 17.4623 15.5801 17.4623 15.775C17.4623 16.1292 17.5657 16.4392 17.7748 16.7Z" stroke-width="0.2"></path><path d="M4.02193 5.01879C3.70606 4.9568 3.36604 5.04817 3.12132 5.29289L0.292893 8.12132C-0.0976311 8.51184 -0.0976311 9.14501 0.292893 9.53553L0.387101 9.61872C0.779392 9.92375 1.34662 9.89602 1.70711 9.53553L2.999 8.24279L3 17.5858C3 18.1381 3.44772 18.5858 4 18.5858C4.55228 18.5858 5 18.1381 5 17.5858L4.999 8.19879L6.33553 9.53553C6.72606 9.92606 7.35922 9.92606 7.74975 9.53553C8.14027 9.14501 8.14027 8.51184 7.74975 8.12132L4.92132 5.29289C4.67682 5.04839 4.3372 4.95697 4.02193 5.01879Z"></path></symbol><symbol xmlns="http://www.w3.org/2000/svg" viewBox="0 0 24 24" data-src="resources/icons/sort_1_24.svg" xmlns:xlink="http://www.w3.org/1999/xlink" id="date_created_asc"><path fill-rule="evenodd" clip-rule="evenodd" d="M18 17C18.5523 17 19 17.4477 19 18C19 18.5523 18.5523 19 18 19H6C5.44772 19 5 18.5523 5 18C5 17.4477 5.44772 17 6 17H18ZM16 11C16.5523 11 17 11.4477 17 12C17 12.5523 16.5523 13 16 13H6C5.44772 13 5 12.5523 5 12C5 11.4477 5.44772 11 6 11H16ZM20 5C20.5523 5 21 5.44772 21 6C21 6.55228 20.5523 7 20 7H6C5.44772 7 5 6.55228 5 6C5 5.44772 5.44772 5 6 5H20Z"></path></symbol><symbol xmlns="http://www.w3.org/2000/svg" viewBox="0 0 24 24" xmlns:xlink="http://www.w3.org/1999/xlink" id="time_asc"><path fill-rule="evenodd" clip-rule="evenodd" d="M19 4C19.5523 4 20 4.52233 20 5.16667V6.33333H21C21.5523 6.33333 22 6.85567 22 7.5V16.8333C22 17.4777 21.5523 18 21 18L20.982 17.9988L11.0172 17.9998C11.0115 17.9999 11.0057 18 11 18C10.4477 18 10 17.4777 10 16.8333V7.5C10 6.85567 10.4477 6.33333 11 6.33333H12V5.16667C12 4.52233 12.4477 4 13 4C13.5523 4 14 4.52233 14 5.16667V6.33333H18V5.16667C18 4.52233 18.4477 4 19 4ZM20 8.5H12V16H20V8.5Z"></path><path d="M4.02193 18.567C3.70606 18.629 3.36604 18.5376 3.12132 18.2929L0.292893 15.4645C-0.0976311 15.0739 -0.0976311 14.4408 0.292893 14.0503L0.387101 13.9671C0.779392 13.662 1.34662 13.6898 1.70711 14.0503L2.999 15.343L3 6C3 5.44771 3.44772 5 4 5C4.55228 5 5 5.44771 5 6L4.999 15.387L6.33553 14.0503C6.72606 13.6597 7.35922 13.6597 7.74975 14.0503C8.14027 14.4408 8.14027 15.0739 7.74975 15.4645L4.92132 18.2929C4.67682 18.5374 4.3372 18.6288 4.02193 18.567Z"></path></symbol><symbol xmlns="http://www.w3.org/2000/svg" viewBox="0 0 24 24" data-src="resources/icons/sort_date_up_24.svg" xmlns:xlink="http://www.w3.org/1999/xlink" id="time_desc"><path fill-rule="evenodd" clip-rule="evenodd" d="M19 4C19.5523 4 20 4.52233 20 5.16667V6.33333H21C21.5523 6.33333 22 6.85567 22 7.5V16.8333C22 17.4777 21.5523 18 21 18L20.982 17.9988L11.0172 17.9998C11.0115 17.9999 11.0057 18 11 18C10.4477 18 10 17.4777 10 16.8333V7.5C10 6.85567 10.4477 6.33333 11 6.33333H12V5.16667C12 4.52233 12.4477 4 13 4C13.5523 4 14 4.52233 14 5.16667V6.33333H18V5.16667C18 4.52233 18.4477 4 19 4ZM20 8.5H12V16H20V8.5Z"></path><path d="M4.02193 5.01879C3.70606 4.9568 3.36604 5.04817 3.12132 5.29289L0.292893 8.12132C-0.0976311 8.51184 -0.0976311 9.14501 0.292893 9.53553L0.387101 9.61872C0.779392 9.92375 1.34662 9.89602 1.70711 9.53553L2.999 8.24279L3 17.5858C3 18.1381 3.44772 18.5858 4 18.5858C4.55228 18.5858 5 18.1381 5 17.5858L4.999 8.19879L6.33553 9.53553C6.72606 9.92606 7.35922 9.92606 7.74975 9.53553C8.14027 9.14501 8.14027 8.51184 7.74975 8.12132L4.92132 5.29289C4.67682 5.04839 4.3372 4.95697 4.02193 5.01879Z"></path></symbol></svg>

<svg width="0" height="0"><symbol xmlns="http://www.w3.org/2000/svg" id="alph_asc" data-src="resources/icons/sort_alphabet_down_24.svg" viewBox="0 0 24 24"><path d="M9.387 15.671v.001c-.112.384-.099.721.059 1.002.16.284.418.426.758.426a.767.767 0 0 0 .518-.213c.154-.137.261-.308.32-.509v-.003l.442-1.675h2.933l.48 1.702v.001a.996.996 0 0 0 .323.499.77.77 0 0 0 .495.198c.34 0 .599-.142.759-.426.157-.28.17-.61.058-.978l-2.324-7.723v-.001a1.493 1.493 0 0 0-.504-.762c-.245-.201-.498-.31-.754-.31-.27 0-.525.108-.766.311a1.518 1.518 0 0 0-.493.761l-2.304 7.7Zm4.456-2.871h-1.825l.93-3.485.895 3.485Zm3.932 3.9c.21.261.467.4.77.4h4.147a.734.734 0 0 0 .59-.3c.155-.195.232-.43.232-.7 0-.27-.077-.505-.233-.7a.734.734 0 0 0-.589-.3h-3.144l3.588-5.62c.102-.146.183-.341.244-.58.062-.24.094-.456.094-.65 0-.37-.103-.688-.313-.95-.21-.261-.467-.4-.77-.4h-3.947a.734.734 0 0 0-.59.3c-.155.195-.231.43-.231.7 0 .27.076.505.232.7.157.196.354.3.589.3h2.983l-3.607 5.62a1.95 1.95 0 0 0-.254.59c-.068.248-.104.47-.104.665 0 .354.104.664.313.925ZM4.022 18.567a1 1 0 0 1-.9-.274l-2.83-2.829a1 1 0 0 1 0-1.414l.095-.083a1 1 0 0 1 1.32.083L3 15.343V6a1 1 0 1 1 2 0l-.001 9.387 1.337-1.337a1 1 0 1 1 1.414 1.414l-2.83 2.829a.998.998 0 0 1-.9.274Z"/></symbol><symbol xmlns="http://www.w3.org/2000/svg" id="alph_desc" data-src="resources/icons/sort_alphabet_up_24.svg" viewBox="0 0 24 24"><path d="M9.387 15.671v.001c-.112.384-.099.721.059 1.002.16.284.418.426.758.426a.767.767 0 0 0 .518-.213c.154-.137.261-.308.32-.509v-.003l.442-1.675h2.933l.48 1.702v.001a.996.996 0 0 0 .323.499.77.77 0 0 0 .495.198c.34 0 .599-.142.759-.426.157-.28.17-.61.058-.978l-2.324-7.723v-.001a1.493 1.493 0 0 0-.504-.762c-.245-.201-.498-.31-.754-.31-.27 0-.525.108-.766.311a1.518 1.518 0 0 0-.493.761l-2.304 7.7Zm4.456-2.871h-1.825l.93-3.485.895 3.485Zm3.932 3.9c.21.261.467.4.77.4h4.147a.734.734 0 0 0 .59-.3c.155-.195.232-.43.232-.7 0-.27-.077-.505-.233-.7a.734.734 0 0 0-.589-.3h-3.144l3.588-5.62c.102-.146.183-.341.244-.58.062-.24.094-.456.094-.65 0-.37-.103-.688-.313-.95-.21-.261-.467-.4-.77-.4h-3.947a.734.734 0 0 0-.59.3c-.155.195-.231.43-.231.7 0 .27.076.505.232.7.157.196.354.3.589.3h2.983l-3.607 5.62a1.95 1.95 0 0 0-.254.59c-.068.248-.104.47-.104.665 0 .354.104.664.313.925ZM4.022 5.019a.999.999 0 0 0-.9.274L.291 8.12a1 1 0 0 0 0 1.415l.095.083a1 1 0 0 0 1.32-.083L3 8.243v9.343a1 1 0 1 0 2 0l-.001-9.387 1.337 1.337A1 1 0 1 0 7.75 8.12L4.92 5.293a.998.998 0 0 0-.9-.274Z"/></symbol><symbol xmlns="http://www.w3.org/2000/svg" id="date_created_asc" data-src="resources/icons/sort_1_24.svg" viewBox="0 0 24 24"><path fill-rule="evenodd" d="M18 17a1 1 0 1 1 0 2H6a1 1 0 1 1 0-2h12Zm-2-6a1 1 0 1 1 0 2H6a1 1 0 1 1 0-2h10Zm4-6a1 1 0 1 1 0 2H6a1 1 0 0 1 0-2h14Z" clip-rule="evenodd"/></symbol><symbol xmlns="http://www.w3.org/2000/svg" id="time_asc" viewBox="0 0 24 24"><path fill-rule="evenodd" d="M19 4c.552 0 1 .522 1 1.167v1.166h1c.552 0 1 .523 1 1.167v9.333c0 .645-.448 1.167-1 1.167l-.018-.001h-9.965L11 18c-.552 0-1-.522-1-1.167V7.5c0-.644.448-1.167 1-1.167h1V5.167C12 4.522 12.448 4 13 4s1 .522 1 1.167v1.166h4V5.167C18 4.522 18.448 4 19 4Zm1 4.5h-8V16h8V8.5Z" clip-rule="evenodd"/><path d="M4.022 18.567a1 1 0 0 1-.9-.274l-2.83-2.829a1 1 0 0 1 0-1.414l.095-.083a1 1 0 0 1 1.32.083L3 15.343V6a1 1 0 1 1 2 0l-.001 9.387 1.337-1.337a1 1 0 1 1 1.414 1.414l-2.83 2.829a.998.998 0 0 1-.9.274Z"/></symbol><symbol xmlns="http://www.w3.org/2000/svg" id="time_desc" data-src="resources/icons/sort_date_up_24.svg" viewBox="0 0 24 24"><path fill-rule="evenodd" d="M19 4c.552 0 1 .522 1 1.167v1.166h1c.552 0 1 .523 1 1.167v9.333c0 .645-.448 1.167-1 1.167l-.018-.001h-9.965L11 18c-.552 0-1-.522-1-1.167V7.5c0-.644.448-1.167 1-1.167h1V5.167C12 4.522 12.448 4 13 4s1 .522 1 1.167v1.166h4V5.167C18 4.522 18.448 4 19 4Zm1 4.5h-8V16h8V8.5Z" clip-rule="evenodd"/><path d="M4.022 5.019a.999.999 0 0 0-.9.274L.291 8.12a1 1 0 0 0 0 1.415l.095.083a1 1 0 0 0 1.32-.083L3 8.243v9.343a1 1 0 1 0 2 0l-.001-9.387 1.337 1.337A1 1 0 1 0 7.75 8.12L4.92 5.293a.998.998 0 0 0-.9-.274Z"/></symbol></svg>
